X: 03060
T: MONADNOCK HORNPIPE
C: Bob McQuillen 24 Nov 77
B: Bob's Note Book 03 #60
R: hornpipe, reel
%D:1977
Z: 2020 John Chambers <jc:trillian.mit.edu>
M: C
L: 1/8
K: D
de \
| fdA2 A2de | f2a2 d2cd | edef gfed | ceab agfe |\
| fdA2 A2de | f2a2 d2cd | edef gecd | e2d2 d2  :|
|: fg \
| afd2 d2fg | abag fdcd | ecA2 A2cd | efed c2A2 |\
| afd2 d2fg | abag f2d2 | B2ed cbag | f2d2 d2  :|
%%begintext align
%% We have a real pretty mountain
%% in our area named Mt. Monadnock.
%% This tune is for the mountain. (Let's
%% see now, 25 November,
%% wasn't there something
%% else, seems to me?!!)
%%endtext

%%sep 1 1 500

%%sep 1 1 500

